X:1
T:I Remember Loving You
M:2/2
L:1/8
K:G
 g2| g2 f f- f2 e2| e d- d4 B2| d2 d d- d3 e| d2 B2 c| B2 A-| A8| z4 z2 z e|\
 f2 f2 f3 g| f e2 d- d2 dd| d2 dd d| d3-| AA c- c3 c B-| B8| z4 z2 gg|\
 g2 f f- e3 e| e d3| z2 z B| d d3 d3 e| d2 Bc-c B3| A8| z8| f2 f f- f2|\
 g f-| f2 e2 d4| d2 A A- A3 B| c d3 B2 A2| G8| z4 z2 gg| g b3 a2 g2|\
 e8-| e4 z2 g2| g3 g f2 e| e-| d8| z4 z2 BB| B2 B c- c2B-A| A8| z4 z2 AB|\
 c d3 B2|A-G| G8|
